svg/factions/corrupted.svg

<svg xmlns="http://www.w3.org/2000/svg" width="256" height="256" viewBox="0 0 64 64">
    <path d="M28.88 3.14c.24-3.09 5.97-3.1 6.24-.02.32 3.67.06 7.37.13 11.06 8.56 1.5 16.2 8.19 17.89 16.86 1.37 4.98.37 10.43-2.05 14.94-.43 1.18-2.3 2.39-.91 3.6 2.77 3.04 5.89 5.74 8.7 8.74 1.89 2.64-1.03 5.99-3.93 4.64-3.5-3.06-6.59-6.57-9.95-9.78-7.46 5.63-18.54 5.62-26 0-2.98 2.95-5.92 5.95-8.89 8.9-1.2 1.51-4.23 1.58-5.11-.3-.91-1.22-.34-3.1.67-4.06 2.9-3.04 6.2-5.71 8.79-9.03-3.37-5.11-5.29-11.56-3.6-17.61 1.67-8.69 9.31-15.4 17.89-16.9.07-3.68-.18-7.37.13-11.04m-1.2 14.57c-7.61 1.67-13.63 8.62-14.19 16.4 4.06-.04 8.12-.03 12.17-.03 1.39-2.26 3.37-4.74 6.36-4.37 2.98-.36 4.93 2.12 6.32 4.37 4.05 0 8.11-.01 12.17.03-.59-10.86-12.35-19.46-22.83-16.4M13.52 37.19c.27 2.68.86 5.34 2.24 7.68.62.98 1.33 2.74 2.8 2.09 2.63-2.81 5.78-5.23 7.95-8.42-.18-.33-.55-.98-.74-1.31-4.08-.12-8.17.03-12.25-.04m24.57-.05c-.09.45-.26 1.36-.34 1.81 2.21 2.96 5.15 5.33 7.69 8.01.31.02.92.04 1.23.05 2.48-2.64 3.47-6.3 3.81-9.82-4.13 0-8.26.06-12.39-.05M20.14 49.93c6.4 5.86 17.31 5.83 23.72.02-2.72-3.1-5.73-5.93-8.7-8.79a6.42 6.42 0 0 1-6.31 0c-2.98 2.85-5.97 5.69-8.71 8.77"/>
</svg>

<svg width="256px" height="256px" viewBox="0 0 64 64" version="1.1" xmlns="http://www.w3.org/2000/svg"><path d=" M 28.88 3.14 C 29.12 0.05 34.85 0.04 35.12 3.12 C 35.44 6.79 35.18 10.49 35.25 14.18 C 43.81 15.68 51.45 22.37 53.14 31.04 C 54.51 36.02 53.51 41.47 51.09 45.98 C 50.66 47.16 48.79 48.37 50.18 49.58 C 52.95 52.62 56.07 55.32 58.88 58.32 C 60.77 60.96 57.85 64.31 54.95 62.96 C 51.45 59.90 48.36 56.39 45.00 53.18 C 37.54 58.81 26.46 58.80 19.00 53.18 C 16.02 56.13 13.08 59.13 10.11 62.08 C 8.91 63.59 5.88 63.66 5.00 61.78 C 4.09 60.56 4.66 58.68 5.67 57.72 C 8.57 54.68 11.87 52.01 14.46 48.69 C 11.09 43.58 9.17 37.13 10.86 31.08 C 12.53 22.39 20.17 15.68 28.75 14.18 C 28.82 10.50 28.57 6.81 28.88 3.14 M 27.68 17.71 C 20.07 19.38 14.05 26.33 13.49 34.11 C 17.55 34.07 21.61 34.08 25.66 34.08 C 27.05 31.82 29.03 29.34 32.02 29.71 C 35.00 29.35 36.95 31.83 38.34 34.08 C 42.39 34.08 46.45 34.07 50.51 34.11 C 49.92 23.25 38.16 14.65 27.68 17.71 M 13.52 37.19 C 13.79 39.87 14.38 42.53 15.76 44.87 C 16.38 45.85 17.09 47.61 18.56 46.96 C 21.19 44.15 24.34 41.73 26.51 38.54 C 26.33 38.21 25.96 37.56 25.77 37.23 C 21.69 37.11 17.60 37.26 13.52 37.19 M 38.09 37.14 C 38.00 37.59 37.83 38.50 37.75 38.95 C 39.96 41.91 42.90 44.28 45.44 46.96 C 45.75 46.98 46.36 47.00 46.67 47.01 C 49.15 44.37 50.14 40.71 50.48 37.19 C 46.35 37.19 42.22 37.25 38.09 37.14 M 20.14 49.93 C 26.54 55.79 37.45 55.76 43.86 49.95 C 41.14 46.85 38.13 44.02 35.16 41.16 C 33.19 42.26 30.82 42.27 28.85 41.16 C 25.87 44.01 22.88 46.85 20.14 49.93 Z" /></svg>
